lite/images/sprite/ico-base/ico-edit__s.svg

<?xml version="1.0" encoding="utf-8"?>
<!DOCTYPE svg PUBLIC "-//W3C//DTD SVG 1.1//EN" "http://www.w3.org/Graphics/SVG/1.1/DTD/svg11.dtd">
<svg version="1.1" baseProfile="full"
 xmlns="http://www.w3.org/2000/svg"
 xmlns:xlink="http://www.w3.org/1999/xlink"
 xmlns:ev="http://www.w3.org/2001/xml-events" 
  height="15px" 
  width="15px" 
>
<g >
<path fill="rgb( 210, 210, 210 )"
 d="M11.903,1.24499999999989 C12.23,1.24499999999989 12.5440000000001,1.39400000000001 12.864,1.70000000000005 C13.2460000000001,2.06700000000001 13.443,2.4190000000001 13.4480000000001,2.74800000000005 C13.454,3.08699999999999 13.261,3.46100000000001 12.874,3.8610000000001 C12.5340000000001,4.21100000000001 9.87899999999991,6.83500000000004 4.98099999999999,11.6600000000001 C4.98099999999999,11.6600000000001 4.60599999999999,12.03 4.60599999999999,12.03 C4.04500000000007,12.203 3.72399999999993,11.519 2.70700000000011,11.847 C3.03500000000008,10.7660000000001 2.404,10.577 2.57899999999995,9.96000000000004 C3.625,8.91399999999999 10.546,2.00399999999991 10.809,1.74399999999991 C10.8599999999999,1.69299999999998 11.328,1.24499999999989 11.903,1.24499999999989 M11.903,0.02600000000007 C10.8889999999999,0.02600000000007 10.1500000000001,0.68000000000006 9.94900000000007,0.88100000000009 C9.66399999999999,1.16200000000003 1.58600000000001,9.22900000000004 1.58600000000001,9.22900000000004 C1.52299999999991,9.29299999999989 1.47600000000011,9.37200000000007 1.45299999999997,9.46000000000004 C1.23399999999992,10.268 0.13699999999994,13.3579999999999 0.12599999999998,13.394 C0.06999999999994,13.578 0.12100000000009,13.778 0.25600000000009,13.912 C0.35300000000007,14.01 0.48299999999995,14.0609999999999 0.61599999999999,14.0609999999999 C0.66799999999989,14.0609999999999 0.721,14.0530000000001 0.77299999999991,14.037 C0.80999999999995,14.0250000000001 4.5150000000001,13.327 5.12400000000002,13.145 C5.20499999999993,13.1220000000001 5.27800000000002,13.078 5.33799999999997,13.02 C5.72299999999996,12.6400000000001 13.1479999999999,5.32999999999993 13.749,4.70900000000006 C14.3699999999999,4.06799999999998 14.6790000000001,3.40100000000007 14.6669999999999,2.72700000000009 C14.6559999999999,2.05999999999995 14.3320000000001,1.4190000000001 13.7070000000001,0.81999999999994 C13.1569999999999,0.29299999999989 12.55,0.02600000000007 11.903,0.02600000000007 C11.903,0.02600000000007 11.903,0.02600000000007 11.903,0.02600000000007 Z "/>
</g>
</svg>

<?xml version="1.0" encoding="utf-8"?><svg baseProfile="full" xmlns="http://www.w3.org/2000/svg" height="15" width="15"><path fill="rgb( 210, 210, 210 )" d="M11.903 1.245c.327 0 .64.15.96.455.383.367.58.72.585 1.048.006.34-.187.713-.574 1.113-.34.35-2.995 2.975-7.893 7.8 0 0-.374.37-.374.37-.56.173-.882-.51-1.9-.183.33-1.08-.302-1.27-.127-1.887 1.045-1.046 7.966-7.956 8.23-8.216.05-.05.518-.5 1.093-.5m0-1.218C10.89.026 10.15.68 9.95.88c-.286.282-8.364 8.35-8.364 8.35-.063.063-.11.142-.133.23-.22.808-1.316 3.898-1.327 3.934-.056.184-.005.384.13.518.097.098.227.15.36.15.052 0 .105-.01.157-.025.037-.012 3.742-.71 4.35-.892.082-.023.155-.067.215-.125.385-.38 7.81-7.69 8.41-8.31.622-.642.93-1.31.92-1.983-.012-.667-.336-1.308-.96-1.907-.55-.527-1.158-.794-1.805-.794z"/></svg>
